X: 3
T:Rannie MacLellan's Reel (R-167; \251Brenda Stubbert)
R:Reel
S:http://www.cranfordpub.com
D:In Jig Time,1994; Fiddler's Choice, Jerry Holland; Natalie MacMaster Live
B:Brenda Stubbert's Collection
L:1/8
M:C|
K:D
|:fe|"D"dBAd BAFD|"Em"E2 FE "G"DB,B,D|"D"A,B,DE F2 ED| "Em"EBBA "A"B3 c|
"D"defe dBAF|"Em"E2 FE "G"DB,B,D|"D"A,B,DE F2 dB|"A"AFEF "D"D2:|
|:FG| "D"Addc d2 cA| "Em"Beed e2 de |"D"f2 af egfe|"G"dBAd "A"FEEF|
"D"Dddc d2 cA|"Em"Beed e2 de|"D"f2 af "G"egfe|"A"dBAF "D"D2:|

